X: 52
T: Hundred Years Since, A
R:Reel
C:James Porteons
S:MacDonald - Skye Collection
N:pg.130
M:C|
L:1/8
K:Eb
C|B,G,B,C E2 (EG)|FEFG FECE|B,G,B,C EFGc|BGFG E2E:|
d|edcB c2 ce|BGFE FECB|(ed)cB (cd)ef|(gf)ed e2 ef|(gf)ed e2 ef|
(gf)ed (ed)cB|(AG)FE FECE|B,G,B,C EFGc|BGFG E2E||


